X:1
T:The Big Band Theory
M:4/4
L:1/4
K:D
 A/2 A3/2| B A A G/2 F/2-| F F F F| E F/2 E3/2 D| B,2 z D| C C C D|\
 E/2 E3/2 E G| F4-| F2 z A| B/2 A3/2 A G| F2 F/2 F3/2| E F E/2 D3/2|\
 B,2 z D| C C C D| E C/2 B,3/2 A,/2 D/2-| D4| z D D/2 D3/2| D G G F/2 G/2-|\
 G D D D| D F F E/2 F/2-| F4| E E E F| ^G/2 G3/2 G B| A4-| A2 z A|\
 B A A G| F2 F F| E F E/2 D3/2| B,2 D/2 D3/2| C G G/2 G3/2| F D E C|\
 D4-| D z||
